packages/icons/svgs/duotone/Source=dashboard.svg

<svg width="24" height="24" viewBox="0 0 24 24" fill="none" xmlns="http://www.w3.org/2000/svg">
<g clip-path="url(#clip0_830_723)">
<path fill-rule="evenodd" clip-rule="evenodd" d="M12 2C6.47715 2 2 6.47715 2 12C2 17.5228 6.47715 22 12 22C17.5228 22 22 17.5228 22 12C22 6.47715 17.5228 2 12 2ZM0 12C0 5.37258 5.37258 0 12 0C18.6274 0 24 5.37258 24 12C24 18.6274 18.6274 24 12 24C5.37258 24 0 18.6274 0 12Z" fill="black" style="fill:black;fill-opacity:1;"/>
<path fill-rule="evenodd" clip-rule="evenodd" d="M6.29289 6.29289C6.68342 5.90237 7.31658 5.90237 7.70711 6.29289L11.2971 9.88289C11.6876 10.2734 11.6876 10.9066 11.2971 11.2971C10.9066 11.6876 10.2734 11.6876 9.88289 11.2971L6.29289 7.70711C5.90237 7.31658 5.90237 6.68342 6.29289 6.29289Z" fill="black" style="fill:black;fill-opacity:1;"/>
<path fill-rule="evenodd" clip-rule="evenodd" d="M12 11C11.4477 11 11 11.4477 11 12C11 12.5523 11.4477 13 12 13C12.5523 13 13 12.5523 13 12C13 11.4477 12.5523 11 12 11ZM9 12C9 10.3431 10.3431 9 12 9C13.6569 9 15 10.3431 15 12C15 13.6569 13.6569 15 12 15C10.3431 15 9 13.6569 9 12Z" fill="black" style="fill:black;fill-opacity:1;"/>
<g opacity="0.5">
<path fill-rule="evenodd" clip-rule="evenodd" d="M12 4C12.5523 4 13 4.44772 13 5V6C13 6.55228 12.5523 7 12 7C11.4477 7 11 6.55228 11 6V5C11 4.44772 11.4477 4 12 4Z" fill="black" style="fill:black;fill-opacity:1;"/>
<path fill-rule="evenodd" clip-rule="evenodd" d="M17.6571 6.34289C18.0476 6.73342 18.0476 7.36658 17.6571 7.75711L16.9501 8.46411C16.5596 8.85463 15.9264 8.85463 15.5359 8.46411C15.1454 8.07358 15.1454 7.44042 15.5359 7.04989L16.2429 6.34289C16.6334 5.95237 17.2666 5.95237 17.6571 6.34289Z" fill="black" style="fill:black;fill-opacity:1;"/>
<path fill-rule="evenodd" clip-rule="evenodd" d="M17 12C17 11.4477 17.4477 11 18 11H19C19.5523 11 20 11.4477 20 12C20 12.5523 19.5523 13 19 13H18C17.4477 13 17 12.5523 17 12Z" fill="black" style="fill:black;fill-opacity:1;"/>
<path fill-rule="evenodd" clip-rule="evenodd" d="M4 12C4 11.4477 4.44772 11 5 11H6C6.55228 11 7 11.4477 7 12C7 12.5523 6.55228 13 6 13H5C4.44772 13 4 12.5523 4 12Z" fill="black" style="fill:black;fill-opacity:1;"/>
</g>
</g>
<defs>
<clipPath id="clip0_830_723">
<rect width="24" height="24" fill="white" style="fill:white;fill-opacity:1;"/>
</clipPath>
</defs>
</svg>

<svg xmlns="http://www.w3.org/2000/svg" width="24" height="24" viewBox="0 0 24 24"><g fill-rule="evenodd" clip-path="url(#a)" clip-rule="evenodd"><path d="M12 2C6.477 2 2 6.477 2 12s4.477 10 10 10 10-4.477 10-10S17.523 2 12 2M0 12C0 5.373 5.373 0 12 0s12 5.373 12 12-5.373 12-12 12S0 18.627 0 12"/><path d="M6.293 6.293a1 1 0 0 1 1.414 0l3.59 3.59a1 1 0 0 1-1.414 1.414l-3.59-3.59a1 1 0 0 1 0-1.414"/><path d="M12 11a1 1 0 1 0 0 2 1 1 0 0 0 0-2m-3 1a3 3 0 1 1 6 0 3 3 0 0 1-6 0"/><path d="M12 4a1 1 0 0 1 1 1v1a1 1 0 1 1-2 0V5a1 1 0 0 1 1-1m5.657 2.343a1 1 0 0 1 0 1.414l-.707.707a1 1 0 1 1-1.414-1.414l.707-.707a1 1 0 0 1 1.414 0M17 12a1 1 0 0 1 1-1h1a1 1 0 1 1 0 2h-1a1 1 0 0 1-1-1M4 12a1 1 0 0 1 1-1h1a1 1 0 1 1 0 2H5a1 1 0 0 1-1-1" opacity=".5"/></g><defs><clipPath id="a"><path fill="#fff" d="M0 0h24v24H0z"/></clipPath></defs></svg>
